Numix-Light/16/status/indicator-keyboard-De.svg

<?xml version="1.0" encoding="UTF-8" standalone="no"?>
<svg
   xmlns:dc="http://purl.org/dc/elements/1.1/"
   xmlns:cc="http://creativecommons.org/ns#"
   xmlns:rdf="http://www.w3.org/1999/02/22-rdf-syntax-ns#"
   xmlns:svg="http://www.w3.org/2000/svg"
   xmlns="http://www.w3.org/2000/svg"
   xmlns:sodipodi="http://sodipodi.sourceforge.net/DTD/sodipodi-0.dtd"
   xmlns:inkscape="http://www.inkscape.org/namespaces/inkscape"
   viewBox="0 0 16 16"
   id="svg2"
   version="1.1"
   inkscape:version="0.91 r13725"
   sodipodi:docname="indicator-keyboard-De.svg">
  <metadata
     id="metadata13">
    <rdf:RDF>
      <cc:Work
         rdf:about="">
        <dc:format>image/svg+xml</dc:format>
        <dc:type
           rdf:resource="http://purl.org/dc/dcmitype/StillImage" />
      </cc:Work>
    </rdf:RDF>
  </metadata>
  <defs
     id="defs11" />
  <sodipodi:namedview
     pagecolor="#ffffff"
     bordercolor="#666666"
     borderopacity="1"
     objecttolerance="10"
     gridtolerance="10"
     guidetolerance="10"
     inkscape:pageopacity="0"
     inkscape:pageshadow="2"
     inkscape:window-width="640"
     inkscape:window-height="480"
     id="namedview9"
     showgrid="false"
     inkscape:zoom="14.75"
     inkscape:cx="8"
     inkscape:cy="8"
     inkscape:window-x="65"
     inkscape:window-y="24"
     inkscape:window-maximized="0"
     inkscape:current-layer="svg2" />
  <path
     style="fill:#353535;fill-opacity:1"
     d="M 1.5996094 0 C 0.71320937 2.9605947e-16 0 0.71320937 0 1.5996094 L 0 14.400391 C 2.9605947e-16 15.286791 0.71320937 16 1.5996094 16 L 14.400391 16 C 15.286791 16 16 15.286791 16 14.400391 L 16 1.5996094 C 16 0.71320937 15.286791 0 14.400391 0 L 1.5996094 0 z M 4.5703125 4.8046875 C 5.0743125 4.8046875 5.5370312 4.8719062 5.9570312 5.0039062 C 6.3770313 5.1359063 6.7371094 5.3336562 7.0371094 5.5976562 C 7.3431094 5.8616563 7.5800469 6.1918906 7.7480469 6.5878906 C 7.9160469 6.9838906 8 7.4446562 8 7.9726562 C 8 8.5066563 7.9160469 8.9711875 7.7480469 9.3671875 C 7.5800469 9.7631875 7.3431094 10.093422 7.0371094 10.357422 C 6.7371094 10.621422 6.3770313 10.819172 5.9570312 10.951172 C 5.5370313 11.083172 5.0743125 11.150391 4.5703125 11.150391 C 4.3183125 11.150391 4.0533438 11.135469 3.7773438 11.105469 C 3.5013437 11.081469 3.2588281 11.042281 3.0488281 10.988281 L 3.0488281 4.9765625 C 3.2588281 4.9165625 3.5013437 4.8736094 3.7773438 4.8496094 C 4.0533438 4.8196094 4.3183125 4.8046875 4.5703125 4.8046875 z M 4.6425781 5.3359375 C 4.3185781 5.3359375 4.0816406 5.3452812 3.9316406 5.3632812 C 3.7876406 5.3812812 3.6981094 5.3924375 3.6621094 5.3984375 L 3.6621094 10.556641 C 3.6981094 10.562641 3.7876406 10.573797 3.9316406 10.591797 C 4.0816406 10.609797 4.3185781 10.619141 4.6425781 10.619141 C 5.0925781 10.619141 5.4843125 10.559453 5.8203125 10.439453 C 6.1563125 10.313453 6.4399688 10.136203 6.6679688 9.9082031 C 6.8959687 9.6802031 7.0656875 9.4040781 7.1796875 9.0800781 C 7.2936875 8.7500781 7.3515625 8.3806562 7.3515625 7.9726562 C 7.3515625 7.5646562 7.2936875 7.199 7.1796875 6.875 C 7.0656875 6.551 6.8959687 6.274875 6.6679688 6.046875 C 6.4399687 5.818875 6.1563125 5.6453906 5.8203125 5.5253906 C 5.4843125 5.3993906 5.0925781 5.3359375 4.6425781 5.3359375 z M 11.078125 6.3359375 C 11.648125 6.3359375 12.1015 6.5205781 12.4375 6.8925781 C 12.7795 7.2645781 12.951172 7.8373281 12.951172 8.6113281 C 12.951172 8.6593281 12.947406 8.7078594 12.941406 8.7558594 C 12.941406 8.8038594 12.939594 8.848625 12.933594 8.890625 L 9.6660156 8.890625 C 9.6840156 9.460625 9.8238908 9.8990779 10.087891 10.205078 C 10.351891 10.511078 10.773609 10.664063 11.349609 10.664062 C 11.667609 10.664062 11.919469 10.634219 12.105469 10.574219 C 12.291469 10.514219 12.425766 10.463875 12.509766 10.421875 L 12.617188 10.925781 C 12.533188 10.973781 12.374625 11.029703 12.140625 11.095703 C 11.912625 11.161703 11.642078 11.195313 11.330078 11.195312 C 10.922078 11.195312 10.575109 11.135625 10.287109 11.015625 C 9.9991095 10.895625 9.7621719 10.727719 9.5761719 10.511719 C 9.3901719 10.295719 9.2539219 10.040094 9.1699219 9.7460938 C 9.0859219 9.4460938 9.0449219 9.119625 9.0449219 8.765625 C 9.0449219 8.357625 9.1008438 8.003125 9.2148438 7.703125 C 9.3348437 7.397125 9.4878281 7.1415 9.6738281 6.9375 C 9.8658281 6.7335 10.082266 6.5842813 10.322266 6.4882812 C 10.568266 6.3862812 10.820125 6.3359375 11.078125 6.3359375 z M 11.087891 6.8574219 C 10.877891 6.8574219 10.689484 6.8984219 10.521484 6.9824219 C 10.359484 7.0664219 10.213891 7.1802188 10.087891 7.3242188 C 9.9678908 7.4622188 9.8727813 7.6245469 9.8007812 7.8105469 C 9.7347812 7.9965469 9.6955937 8.1924844 9.6835938 8.3964844 L 12.347656 8.3964844 C 12.335656 7.9104844 12.221859 7.5317188 12.005859 7.2617188 C 11.789859 6.9917187 11.483891 6.8574219 11.087891 6.8574219 z "
     id="path4" />
</svg>

<svg xmlns="http://www.w3.org/2000/svg" viewBox="0 0 16 16">
 <path d="m 1.6 0 c -0.886 0 -1.6 0.713 -1.6 1.6 l 0 12.801 c 0 0.886 0.713 1.6 1.6 1.6 l 12.801 0 c 0.886 0 1.6 -0.713 1.6 -1.6 l 0 -12.801 c 0 -0.886 -0.713 -1.6 -1.6 -1.6 l -12.801 0 z m 2.971 4.805 c 0.504 0 0.967 0.067 1.387 0.199 c 0.42 0.132 0.78 0.33 1.08 0.594 c 0.306 0.264 0.543 0.594 0.711 0.99 c 0.168 0.396 0.252 0.857 0.252 1.385 c 0 0.534 -0.084 0.999 -0.252 1.395 c -0.168 0.396 -0.405 0.726 -0.711 0.99 c -0.3 0.264 -0.66 0.462 -1.08 0.594 c -0.42 0.132 -0.883 0.199 -1.387 0.199 c -0.252 0 -0.517 -0.015 -0.793 -0.045 c -0.276 -0.024 -0.519 -0.063 -0.729 -0.117 l 0 -6.01 c 0.21 -0.06 0.453 -0.103 0.729 -0.127 c 0.276 -0.03 0.541 -0.045 0.793 -0.045 z m 0.072 0.531 c -0.324 0 -0.561 0.009 -0.711 0.027 c -0.144 0.018 -0.234 0.029 -0.27 0.035 l 0 5.158 c 0.036 0.006 0.126 0.017 0.27 0.035 c 0.15 0.018 0.387 0.027 0.711 0.027 c 0.45 0 0.842 -0.06 1.178 -0.18 c 0.336 -0.126 0.62 -0.303 0.848 -0.531 c 0.228 -0.228 0.398 -0.504 0.512 -0.828 c 0.114 -0.33 0.172 -0.699 0.172 -1.107 c 0 -0.408 -0.058 -0.774 -0.172 -1.098 c -0.114 -0.324 -0.284 -0.6 -0.512 -0.828 c -0.228 -0.228 -0.512 -0.401 -0.848 -0.521 c -0.336 -0.126 -0.728 -0.189 -1.178 -0.189 z m 6.436 1 c 0.57 0 1.023 0.185 1.359 0.557 c 0.342 0.372 0.514 0.945 0.514 1.719 c 0 0.048 -0.004 0.097 -0.01 0.145 c 0 0.048 -0.002 0.093 -0.008 0.135 l -3.268 0 c 0.018 0.57 0.158 1.01 0.422 1.314 c 0.264 0.306 0.686 0.459 1.262 0.459 c 0.318 0 0.57 -0.03 0.756 -0.09 c 0.186 -0.06 0.32 -0.11 0.404 -0.152 l 0.107 0.504 c -0.084 0.048 -0.243 0.104 -0.477 0.17 c -0.228 0.066 -0.499 0.1 -0.811 0.1 c -0.408 0 -0.755 -0.06 -1.043 -0.18 c -0.288 -0.12 -0.525 -0.288 -0.711 -0.504 c -0.186 -0.216 -0.322 -0.472 -0.406 -0.766 c -0.084 -0.3 -0.125 -0.626 -0.125 -0.98 c 0 -0.408 0.056 -0.762 0.17 -1.063 c 0.12 -0.306 0.273 -0.562 0.459 -0.766 c 0.192 -0.204 0.408 -0.353 0.648 -0.449 c 0.246 -0.102 0.498 -0.152 0.756 -0.152 z m 0.01 0.521 c -0.21 0 -0.398 0.041 -0.566 0.125 c -0.162 0.084 -0.308 0.198 -0.434 0.342 c -0.12 0.138 -0.215 0.3 -0.287 0.486 c -0.066 0.186 -0.105 0.382 -0.117 0.586 l 2.664 0 c -0.012 -0.486 -0.126 -0.865 -0.342 -1.135 c -0.216 -0.27 -0.522 -0.404 -0.918 -0.404 z" style="fill:#353535;fill-opacity:1"/>
</svg>
